assets/images/developers/advantages-ethereum.svg

<svg width="150" height="130" viewBox="0 0 150 130" fill="none" xmlns="http://www.w3.org/2000/svg">
<path d="M107.681 66.2402L74.1523 55.8493L42.0685 68.5878L75.222 78.8657L107.681 66.2402Z" fill="url(#paint0_linear_353_8831)" stroke="#220E6E" stroke-linecap="round" stroke-linejoin="round"/>
<path d="M75.222 78.8656L76.6985 121.89L107.681 66.2401L75.222 78.8656Z" fill="url(#paint1_linear_353_8831)" stroke="#220E6E" stroke-miterlimit="10" stroke-linejoin="round"/>
<path d="M42.0664 68.5878L76.6963 121.89L75.2198 78.8657L42.0664 68.5878Z" fill="url(#paint2_linear_353_8831)" stroke="#220E6E" stroke-linecap="round" stroke-linejoin="round"/>
<path d="M42.2044 61.9499L74.9016 71.6297L72.6316 6.92052L42.2044 61.9499Z" fill="url(#paint3_linear_353_8831)" stroke="#220E6E" stroke-linecap="round" stroke-linejoin="round"/>
<path d="M72.6328 6.92078L74.9028 71.63L106.82 59.4966L72.6328 6.92078Z" fill="url(#paint4_linear_353_8831)" stroke="#220E6E" stroke-linecap="round" stroke-linejoin="round"/>
<defs>
<linearGradient id="paint0_linear_353_8831" x1="104.489" y1="64.2078" x2="54.4656" y2="69.9916" gradientUnits="userSpaceOnUse">
<stop stop-color="#CAB3F5"/>
<stop offset="1" stop-color="#87A9F0"/>
</linearGradient>
<linearGradient id="paint1_linear_353_8831" x1="91.4408" y1="73.3349" x2="78.1289" y2="122.274" gradientUnits="userSpaceOnUse">
<stop stop-color="#C8B2F5"/>
<stop offset="1" stop-color="#EBE7FE"/>
</linearGradient>
<linearGradient id="paint2_linear_353_8831" x1="64.8843" y1="74.7018" x2="53.8784" y2="115.776" gradientUnits="userSpaceOnUse">
<stop stop-color="#EECBC0"/>
<stop offset="1" stop-color="#B8FBF6"/>
</linearGradient>
<linearGradient id="paint3_linear_353_8831" x1="67.7699" y1="31.6471" x2="59.3123" y2="63.2115" gradientUnits="userSpaceOnUse">
<stop stop-color="#EECBC0"/>
<stop offset="1" stop-color="#B7D0F8"/>
</linearGradient>
<linearGradient id="paint4_linear_353_8831" x1="89.1307" y1="34.846" x2="79.1282" y2="72.7622" gradientUnits="userSpaceOnUse">
<stop stop-color="#B8FBF6"/>
<stop offset="1" stop-color="#CAB3F5"/>
</linearGradient>
</defs>
</svg>

<svg width="150" height="130" fill="none" xmlns="http://www.w3.org/2000/svg"><path d="M107.681 66.24 74.152 55.85 42.068 68.587l33.154 10.278 32.459-12.626Z" fill="url(#a)" stroke="#220E6E" stroke-linecap="round" stroke-linejoin="round"/><path d="m75.222 78.866 1.477 43.024 30.982-55.65-32.459 12.626Z" fill="url(#b)" stroke="#220E6E" stroke-miterlimit="10" stroke-linejoin="round"/><path d="m42.066 68.588 34.63 53.302-1.476-43.024-33.154-10.278Z" fill="url(#c)" stroke="#220E6E" stroke-linecap="round" stroke-linejoin="round"/><path d="m42.204 61.95 32.698 9.68-2.27-64.71-30.428 55.03Z" fill="url(#d)" stroke="#220E6E" stroke-linecap="round" stroke-linejoin="round"/><path d="m72.633 6.92 2.27 64.71 31.917-12.133L72.633 6.92Z" fill="url(#e)" stroke="#220E6E" stroke-linecap="round" stroke-linejoin="round"/><defs><linearGradient id="a" x1="104.489" y1="64.208" x2="54.466" y2="69.992" gradientUnits="userSpaceOnUse"><stop stop-color="#CAB3F5"/><stop offset="1" stop-color="#87A9F0"/></linearGradient><linearGradient id="b" x1="91.441" y1="73.335" x2="78.129" y2="122.274" gradientUnits="userSpaceOnUse"><stop stop-color="#C8B2F5"/><stop offset="1" stop-color="#EBE7FE"/></linearGradient><linearGradient id="c" x1="64.884" y1="74.702" x2="53.878" y2="115.776" gradientUnits="userSpaceOnUse"><stop stop-color="#EECBC0"/><stop offset="1" stop-color="#B8FBF6"/></linearGradient><linearGradient id="d" x1="67.77" y1="31.647" x2="59.312" y2="63.212" gradientUnits="userSpaceOnUse"><stop stop-color="#EECBC0"/><stop offset="1" stop-color="#B7D0F8"/></linearGradient><linearGradient id="e" x1="89.131" y1="34.846" x2="79.128" y2="72.762" gradientUnits="userSpaceOnUse"><stop stop-color="#B8FBF6"/><stop offset="1" stop-color="#CAB3F5"/></linearGradient></defs></svg>
